img/arrow-24.svg

<svg fill="none" height="14" viewBox="0 0 17 14" width="17" xmlns="http://www.w3.org/2000/svg"><path d="m15.8975 7.59866c.3306-.33063.3306-.86669 0-1.19732l-5.3879-5.3879c-.3306-.330628-.8667-.330628-1.19733 0-.33063.33063-.33063.86668 0 1.19731l4.78923 4.78925-4.78923 4.7892c-.33063.3307-.33063.8667 0 1.1974.33063.3306.86673.3306 1.19733 0zm-14.14471-1.44529c-.46758 0-.846627.37905-.846627.84663s.379047.84663.846627.84663zm13.54601 0h-13.54601v1.69326h13.54601z" fill="#0080ff"/></svg>

<svg width="17" height="14" viewBox="0 0 17 14" fill="none" xmlns="http://www.w3.org/2000/svg">
<path d="M15.8975 7.59866C16.2281 7.26803 16.2281 6.73197 15.8975 6.40134L10.5096 1.01344C10.179 0.682812 9.6429 0.682812 9.31227 1.01344C8.98164 1.34407 8.98164 1.88012 9.31227 2.21075L14.1015 7L9.31227 11.7892C8.98164 12.1199 8.98164 12.6559 9.31227 12.9866C9.6429 13.3172 10.179 13.3172 10.5096 12.9866L15.8975 7.59866ZM1.75279 6.15337C1.28521 6.15337 0.906163 6.53242 0.906163 7C0.906163 7.46758 1.28521 7.84663 1.75279 7.84663V6.15337ZM15.2988 6.15337L1.75279 6.15337V7.84663L15.2988 7.84663V6.15337Z" fill="#0080FF"/>
</svg>
